X: 13869
T: Fox Chase, The
R: jig
M: 6/8
K: Gmajor
gdd Bdd|cdd Add|gdd Bdd|cdd Add|
gdd Bdd|cdd Add|gdd Bdd|cdd Add|d3d3||

